src/img/logo/logo.svg

<svg width="51" height="40" viewBox="0 0 51 40" fill="none" xmlns="http://www.w3.org/2000/svg">
<path fill-rule="evenodd" clip-rule="evenodd" d="M0.15665 29.6742C0.39745 29.9857 0.76455 30.0576 0.77875 30.0612L48.8195 39.8593C48.8246 39.86 49.323 39.977 49.728 39.6472C50.1315 39.3184 50.0378 38.8429 50.0378 38.8429V38.8429L43.7865 1.76378C43.7865 1.7628 43.7343 1.35821 43.3381 1.11899C42.9433 0.880114 42.373 1.0677 42.373 1.0677L7.1791 15.118C7.04725 15.1827 6.8432 15.2448 6.67235 15.5697C6.50115 15.8945 0.17795 28.646 0.0898 28.8265C0 29.0079 -0.0823 29.3627 0.15665 29.6742ZM45.7428 36.1098L25.6933 24.9648L36.032 22.8063L45.7428 36.1098ZM8.04735 17.2272L20.5686 24.2099L2.7356 27.9245L8.04735 17.2272ZM9.7094 16.0553L41.2403 3.46847L35.6816 21.0555L23.3104 23.6393L9.7094 16.0553ZM47.3634 35.0503L37.5844 21.6533L42.4872 6.13295L47.3634 35.0503ZM43.4766 36.9477L5.42645 29.1873L22.9494 25.5371L43.4766 36.9477Z" fill="#A3BBC8"/>
</svg>

<svg width="51" height="40" fill="none" xmlns="http://www.w3.org/2000/svg"><path fill-rule="evenodd" clip-rule="evenodd" d="M.157 29.674c.24.312.608.384.622.387l48.04 9.798c.006.001.504.118.909-.212.404-.329.31-.804.31-.804l-6.252-37.08a.959.959 0 00-.448-.644c-.395-.239-.965-.051-.965-.051L7.179 15.118c-.132.065-.336.127-.507.452-.17.325-6.494 13.076-6.582 13.256-.09.182-.172.537.067.848zm45.586 6.436l-20.05-11.145 10.339-2.159 9.71 13.304zM8.047 17.227L20.57 24.21 2.736 27.924l5.311-10.697zm1.662-1.172L41.24 3.468l-5.558 17.587L23.31 23.64l-13.6-7.584zM47.363 35.05l-9.779-13.397 4.903-15.52 4.876 28.917zm-3.886 1.898l-38.05-7.76 17.522-3.65 20.528 11.41z" fill="#A3BBC8"/></svg>
